X:1
T:Alphabet Song
C:Traditional Kid's Song
M:4/4
L:1/4
Q:1/4=100
K:D
| D D A A|B B A2|G G F F|E/2E/2E/2E/2 D2|
  A A G F | F F E2|A       A  G  G | F F E2|
   D   D    A    A |B B A2 | G    G  F    F | E     E  D2|
